!!!OTL: 2017. Jesu, dein bin ich!
!!!ARE: Europa, Mitteleuropa, Deutschland, Westfalen, Paderborn
!!!SCT: E2017
!!!TXL: @@DE
!!!YEM: Copyright 1995, estate of Helmut Schaffrath.
**kern	**text
*ICvox	*
*M2/4	*
*k[b-e-]	*
*g:	*
!LO:TX:a:t=Aus dem Paderbornſchen.	!
{8gL	Jch
8aJ	.
=1	=1
4b-	trau
8ccL	auf
8b-J	.
=2	=2
4a	Gott!
4dd	Jn
=3	=3
4cc	al-
4b-	-ler
=4	=4
2a}	Noth
=5	=5
{4b-/	auf
8a	Gott
8g	mein
=6	=6
4f#	Hof-
8gL	-fen
8b-J	-
=7	=7
2a	bau-
=8	=8
4d}	-e;
{8gL	Jch
8aJ	.
=9	=9
4b-	lie-
8ccL	-be
8b-J	.
=10	=10
4a	Gott!
4dd	Bis
=11	=11
4cc	in
4b-	den
=12	=12
2a}	Tod
=13	=13
{4b-/	auf
8a	die-
8g	-ſe
=14	=14
4f#	Lieb
8gL	ver-
8b-J	.
=15	=15
2a	-trau-
=16	=16
4d	-e.
4r}	.
=17	=17
!LO:TX:a:t=Refr.	!
{4dd	Je-
8cc	-ſu,
8b-	dir
=18	=18
4cc	leb
4f	ich,
=19	=19
4dd	Je-
8cc	-ſu,
8b-	dir
=20	=20
4cc	ſterb
4f}	ich,
=21	=21
{8gL	dein
8aJ	.
8b-	bin
8cc	ich
=22	=22
4dd	todt
8g	und
8a	le-
=23	=23
(>4b-/	-ben-
4a)	.
=24	=24
4g}	-dig!
==	==
!!!AGN: geistlich, Gebet, Jesus - Lied
!!!ONB: ESAC (Essen Associative Code) Database: ERK3
!!!AMT: simple duple
!!!AIN: vox
!!!EED: Helmut Schaffrath
!!!EEV: 1.0
!!!RDF**kern: >= above
!!!GTL: Geistliche Lieder. 3. Jesuslieder (Anbetung des Heilandes.)
!!!URL-scan: https://rosdok.uni-rostock.de/mcrviewer/recordIdentifier/rosdok_ppn745177999/iview2/phys_0724.iview2?x=188.96815741118007&y=1977.0374568100087&scale=0.7014306698522891&rotation=0&layout=singlePageLayout
!!!ENC: Anna Maria Matuszewska
!!!EEV: 2025/10/01
*-	*-
